X:4
T:London Hornpipe. Roose.0965
M:C|
L:1/8
Q:2/4=75
B:J.Roose MS, Manchester 1850
Z:Village Music Project. Steve Mansfield 2019
K:G
dcBA G2G2 | g2fe f2d2 | cecA BdBG | cBAG F2D2 |
EGFA GBAc | BcBA B3g | cBAG BAGF | G2G2 G4 :|
|: g2(bg) f2af | gbag f2d2 | gfed edcB | cABG F2D2 |
EGFA GBAc | BcBA B3g | cBAG BAGF | G2G2 G4 :|

